; G-Code generated by Simplify3D(R) Version 3.0.0
; 6 28, 2016 at 1:53:25 ODP.
; Settings Summary
;   processName,Process1
;   applyToModels,buttons,cover-down-3,cover-up-3
;   profileName,Original Prusa i3 PLA 1.75mm
;   profileVersion,2016-06-03 16:26:06
;   baseProfile,Prusa Mendel (modified)
;   printMaterial,PLA
;   printQuality,NORMAL
;   printExtruders,
;   extruderName,Primary Extruder
;   extruderToolheadNumber,0
;   extruderDiameter,0.4
;   extruderAutoWidth,1
;   extruderWidth,0.48
;   extrusionMultiplier,1
;   extruderUseRetract,1
;   extruderRetractionDistance,2
;   extruderExtraRestartDistance,-0.15
;   extruderRetractionZLift,0.15
;   extruderRetractionSpeed,1800
;   extruderUseCoasting,1
;   extruderCoastingDistance,0.2
;   extruderUseWipe,1
;   extruderWipeDistance,0.2
;   primaryExtruder,0
;   layerHeight,0.16
;   topSolidLayers,8
;   bottomSolidLayers,5
;   perimeterOutlines,2
;   printPerimetersInsideOut,1
;   startPointOption,3
;   startPointOriginX,0
;   startPointOriginY,0
;   startPointOriginZ,300
;   sequentialIslands,0
;   spiralVaseMode,0
;   firstLayerHeightPercentage,120
;   firstLayerWidthPercentage,100
;   firstLayerUnderspeed,0.35
;   useRaft,0
;   raftExtruder,0
;   raftLayers,3
;   raftOffset,3
;   raftSeparationDistance,0.14
;   raftInfill,85
;   disableRaftBaseLayers,0
;   useSkirt,0
;   skirtExtruder,0
;   skirtLayers,1
;   skirtOutlines,7
;   skirtOffset,0
;   usePrimePillar,0
;   primePillarExtruder,999
;   primePillarWidth,12
;   primePillarLocation,7
;   primePillarSpeedMultiplier,1
;   useOozeShield,0
;   oozeShieldExtruder,999
;   oozeShieldOffset,2
;   oozeShieldOutlines,1
;   oozeShieldSidewallShape,1
;   oozeShieldSidewallAngle,30
;   oozeShieldSpeedMultiplier,1
;   infillExtruder,0
;   internalInfillPattern,Triangular
;   externalInfillPattern,Rectilinear
;   infillPercentage,22
;   outlineOverlapPercentage,18
;   infillExtrusionWidthPercentage,100
;   minInfillLength,2
;   infillLayerInterval,1
;   infillAngles,0,60,-60
;   overlapInfillAngles,1
;   generateSupport,0
;   supportExtruder,0
;   supportInfillPercentage,30
;   supportExtraInflation,0.4
;   denseSupportLayers,0
;   denseSupportInfillPercentage,70
;   supportLayerInterval,1
;   supportHorizontalPartOffset,0.2
;   supportUpperSeparationLayers,1
;   supportLowerSeparationLayers,1
;   supportType,0
;   supportGridSpacing,3.5
;   maxOverhangAngle,60
;   supportAngles,0
;   temperatureName,Primary Extruder,Heated Bed
;   temperatureNumber,0,1
;   temperatureSetpointCount,1,1
;   temperatureSetpointLayers,1,1
;   temperatureSetpointTemperatures,205,50
;   temperatureStabilizeAtStartup,1,1
;   temperatureHeatedBed,0,1
;   temperatureRelayBetweenLayers,0,0
;   temperatureRelayBetweenLoops,0,0
;   fanLayers,1,2
;   fanSpeeds,0,100
;   blipFanToFullPower,1
;   adjustSpeedForCooling,1
;   minSpeedLayerTime,15
;   minCoolingSpeedSlowdown,20
;   increaseFanForCooling,0
;   minFanLayerTime,45
;   maxCoolingFanSpeed,100
;   increaseFanForBridging,1
;   bridgingFanSpeed,100
;   use5D,1
;   relativeEdistances,1
;   allowEaxisZeroing,1
;   independentExtruderAxes,0
;   includeM10123,0
;   stickySupport,1
;   applyToolheadOffsets,0
;   gcodeXoffset,0
;   gcodeYoffset,0
;   gcodeZoffset,0
;   overrideMachineDefinition,1
;   machineTypeOverride,0
;   strokeXoverride,200
;   strokeYoverride,200
;   strokeZoverride,175
;   originOffsetXoverride,0
;   originOffsetYoverride,0
;   originOffsetZoverride,0
;   homeXdirOverride,-1
;   homeYdirOverride,-1
;   homeZdirOverride,-1
;   flipXoverride,1
;   flipYoverride,-1
;   flipZoverride,1
;   toolheadOffsets,0,0|0,0|0,0|0,0|0,0|0,0
;   overrideFirmwareConfiguration,0
;   firmwareTypeOverride,RepRap (Marlin/Repetier/Sprinter)
;   GPXconfigOverride,r2
;   baudRateOverride,250000
;   overridePrinterModels,1
;   printerModelsOverride
;   startingGcode,M201 X1000 Y1000 E600,M92 E161.3,G28,G92 E0.0,G1 X8.0 F2000,G1 Y60.0 E4.0  F1000.0,G1 Y100.0 E8.5  F1000.0,G92 Z0.1,G92 E0.0
;   layerChangeGcode,
;   retractionGcode,
;   toolChangeGcode,
;   endingGcode,M104 S0 ; turn off temperature,M140 S0 ; turn off heatbed,G28 X0  ; home X axis,M84     ; disable motors
;   createX3G,0
;   celebration,0
;   celebrationSong,Looney Toons
;   createMB5G,0
;   postProcessing,
;   defaultSpeed,2800
;   outlineUnderspeed,0.8
;   solidInfillUnderspeed,0.9
;   supportUnderspeed,0.8
;   rapidXYspeed,4800
;   rapidZspeed,1000
;   minBridgingArea,50
;   bridgingExtraInflation,1
;   bridgingExtrusionMultiplier,1
;   bridgingSpeedMultiplier,1
;   filamentDiameter,1.75
;   filamentPricePerKg,215
;   filamentDensity,1.25
;   useMinPrintHeight,0
;   minPrintHeight,0
;   useMaxPrintHeight,0
;   maxPrintHeight,0
;   useDiaphragm,0
;   diaphragmLayerInterval,20
;   robustSlicing,1
;   mergeAllIntoSolid,0
;   onlyRetractWhenCrossingOutline,1
;   retractBetweenLayers,1
;   useRetractionMinTravel,1
;   retractionMinTravel,3
;   retractWhileWiping,1
;   onlyWipeOutlines,0
;   avoidCrossingOutline,0
;   maxMovementDetourFactor,3
;   toolChangeRetractionDistance,12
;   toolChangeExtraRestartDistance,-0.5
;   toolChangeRetractionSpeed,600
;   allowThinWallGapFill,0
;   thinWallAllowedOverlapPercentage,10
;   horizontalSizeCompensation,0
G90
M83
M106 S0
M140 S50 T0
M190 S50
M104 S205 T0
M109 S205 T0
M201 X1000 Y1000 E600
M92 E161.3
G28
G92 E0.0
G1 X8.0 F2000
G1 Y60.0 E4.0  F1000.0
G1 Y100.0 E8.5  F1000.0
G92 Z0.1
G92 E0.0
G1 E-2.0000 F1800
G1 Z0.342 F1000
; layer 1, Z = 0.192
M135 T0
; tool H0.192 W0.480
; inner perimeter
G1 X80.856 Y104.137 F4800
G1 Z0.192 F1000
G1 E1.8500 F540
G1 X80.344 Y103.831 E0.0229 F882
G1 X79.885 Y103.455 E0.0227
G1 X79.488 Y103.019 E0.0226
G1 X79.163 Y102.531 E0.0225
G1 X78.904 Y101.979 E0.0234
G1 X76.668 Y96.071 E0.2420
G1 X75.981 Y93.983 E0.0842
G1 X75.487 Y91.863 E0.0834
G1 X75.185 Y89.710 E0.0833
G1 X75.077 Y87.543 E0.0832
G1 X75.163 Y85.377 E0.0831
G1 X75.445 Y83.212 E0.0836
G1 X80.999 Y51.713 E1.2255
G1 X81.181 Y51.041 E0.0267
G1 X81.465 Y50.439 E0.0255
G1 X81.853 Y49.894 E0.0256
G1 X82.334 Y49.422 E0.0258
G1 X82.894 Y49.037 E0.0260
G1 X83.516 Y48.752 E0.0262
G1 X84.182 Y48.576 E0.0264
G1 X84.891 Y48.512 E0.0273
G1 X88.568 Y48.602 E0.1409
G1 X92.255 Y48.915 E0.1418
G1 X95.917 Y49.448 E0.1418
G1 X99.540 Y50.199 E0.1418
G1 X103.111 Y51.167 E0.1418
G1 X106.597 Y52.339 E0.1409
G1 X107.242 Y52.642 E0.0273
G1 X107.807 Y53.035 E0.0264
G1 X108.294 Y53.516 E0.0262
G1 X108.689 Y54.069 E0.0260
G1 X108.979 Y54.677 E0.0258
G1 X109.157 Y55.322 E0.0256
G1 X109.219 Y55.985 E0.0255
G1 X109.160 Y56.678 E0.0267
G1 X103.605 Y88.177 E1.2255
G1 X103.130 Y90.308 E0.0837
G1 X102.470 Y92.373 E0.0831
G1 X101.627 Y94.373 E0.0832
G1 X100.607 Y96.292 E0.0833
G1 X99.418 Y98.116 E0.0834
G1 X98.059 Y99.843 E0.0842
G1 X93.936 Y104.629 E0.2420
G1 X93.504 Y105.060 E0.0234
G1 X93.032 Y105.407 E0.0225
G1 X92.510 Y105.681 E0.0226
G1 X91.950 Y105.877 E0.0227
G1 X91.363 Y105.990 E0.0229
G1 X90.765 Y106.016 E0.0229
G1 X90.142 Y105.952 E0.0240
G1 X82.017 Y104.520 E0.3161
G1 X81.410 Y104.366 E0.0240
G1 X81.041 Y104.214 E0.0153
G1 X80.856 Y104.137 F882
G1 X80.344 Y103.831 F2800
G1 X79.885 Y103.455 F2800
G1 X79.488 Y103.019 F2800
G1 X79.163 Y102.531 F2800
G1 X78.904 Y101.979 F2800
G1 X78.857 Y101.853 F2800
; outer perimeter
G1 X80.640 Y104.567 F4800
G1 X80.068 Y104.225 E0.0256 F784
G1 X79.553 Y103.804 E0.0255
G1 X79.108 Y103.315 E0.0253
G1 X78.743 Y102.767 E0.0252
G1 X78.462 Y102.166 E0.0254
G1 X76.215 Y96.231 E0.2431
G1 X75.518 Y94.113 E0.0854
G1 X75.015 Y91.951 E0.0851
G1 X74.707 Y89.756 E0.0849
G1 X74.596 Y87.545 E0.0848
G1 X74.684 Y85.336 E0.0847
G1 X74.970 Y83.139 E0.0849
G1 X80.530 Y51.608 E1.2268
G1 X80.728 Y50.874 E0.0291
G1 X81.049 Y50.195 E0.0288
G1 X81.487 Y49.581 E0.0289
G1 X82.028 Y49.050 E0.0290
G1 X82.656 Y48.618 E0.0292
G1 X83.353 Y48.299 E0.0294
G1 X84.098 Y48.101 E0.0295
G1 X84.875 Y48.031 E0.0299
G1 X88.594 Y48.123 E0.1426
G1 X92.309 Y48.438 E0.1429
G1 X96.000 Y48.975 E0.1429
G1 X99.652 Y49.732 E0.1429
G1 X103.250 Y50.707 E0.1429
G1 X106.776 Y51.893 E0.1425
G1 X107.483 Y52.225 E0.0299
G1 X108.115 Y52.665 E0.0295
G1 X108.661 Y53.204 E0.0294
G1 X109.104 Y53.824 E0.0292
G1 X109.430 Y54.508 E0.0290
G1 X109.631 Y55.235 E0.0289
G1 X109.701 Y55.983 E0.0288
G1 X109.636 Y56.740 E0.0291
G1 X104.076 Y88.271 E1.2268
G1 X103.594 Y90.433 E0.0849
G1 X102.921 Y92.540 E0.0847
G1 X102.061 Y94.579 E0.0848
G1 X101.021 Y96.536 E0.0849
G1 X99.808 Y98.396 E0.0851
G1 X98.429 Y100.148 E0.0854
G1 X94.288 Y104.957 E0.2432
G1 X93.818 Y105.425 E0.0254
G1 X93.287 Y105.815 E0.0252
G1 X92.702 Y106.123 E0.0253
G1 X92.075 Y106.342 E0.0255
G1 X91.419 Y106.468 E0.0256
G1 X90.751 Y106.497 E0.0256
G1 X90.076 Y106.428 E0.0260
G1 X81.917 Y104.989 E0.3175
G1 X81.258 Y104.823 E0.0260
G1 X80.825 Y104.644 E0.0180
G1 X80.640 Y104.567 F784
G1 X80.068 Y104.225 F2800
G1 X79.553 Y103.804 F2800
G1 X79.108 Y103.315 F2800
G1 X78.743 Y102.767 F2800
G1 X78.548 Y102.351 F2800
; inner perimeter
G1 X78.327 Y82.466 F4800
G1 X78.676 Y82.556 E0.0138 F882
G1 X86.236 Y83.889 E0.2941
G1 X86.595 Y83.924 E0.0138
G1 X86.983 Y83.903 E0.0149
G1 X87.362 Y83.823 E0.0149
G1 X87.725 Y83.686 E0.0148
G1 X88.061 Y83.494 E0.0149
G1 X88.364 Y83.252 E0.0148
G1 X88.624 Y82.966 E0.0148
G1 X88.835 Y82.642 E0.0148
G1 X88.992 Y82.288 E0.0148
G1 X89.082 Y81.942 E0.0137
G1 X89.439 Y79.916 E0.0789
G1 X89.473 Y79.560 E0.0137
G1 X89.446 Y79.174 E0.0148
G1 X89.359 Y78.797 E0.0148
G1 X89.212 Y78.439 E0.0148
G1 X89.011 Y78.108 E0.0148
G1 X88.760 Y77.813 E0.0148
G1 X88.467 Y77.560 E0.0148
G1 X88.137 Y77.355 E0.0149
G1 X87.780 Y77.203 E0.0149
G1 X87.431 Y77.113 E0.0138
G1 X79.871 Y75.780 E0.2941
G1 X79.512 Y75.745 E0.0138
G1 X79.125 Y75.766 E0.0149
G1 X78.745 Y75.846 E0.0149
G1 X78.383 Y75.983 E0.0149
G1 X78.046 Y76.175 E0.0148
G1 X77.744 Y76.417 E0.0148
G1 X77.484 Y76.703 E0.0148
G1 X77.272 Y77.027 E0.0148
G1 X77.116 Y77.381 E0.0148
G1 X77.026 Y77.727 E0.0137
G1 X76.668 Y79.753 E0.0789
G1 X76.635 Y80.109 E0.0137
G1 X76.661 Y80.495 E0.0148
G1 X76.749 Y80.872 E0.0148
G1 X76.895 Y81.230 E0.0148
G1 X77.097 Y81.561 E0.0148
G1 X77.347 Y81.856 E0.0148
G1 X77.641 Y82.109 E0.0149
G1 X77.970 Y82.314 E0.0149
G1 X78.143 Y82.388 E0.0072
G1 X78.327 Y82.466 F882
G1 X78.676 Y82.556 F2800
G1 X81.385 Y83.033 F2800
; outer perimeter
G1 X78.482 Y82.010 F4800
G1 X78.778 Y82.086 E0.0117 F784
G1 X86.302 Y83.413 E0.2927
G1 X86.606 Y83.443 E0.0117
G1 X86.920 Y83.426 E0.0120
G1 X87.227 Y83.361 E0.0120
G1 X87.519 Y83.250 E0.0120
G1 X87.791 Y83.096 E0.0120
G1 X88.034 Y82.901 E0.0119
G1 X88.243 Y82.671 E0.0119
G1 X88.412 Y82.412 E0.0119
G1 X88.537 Y82.129 E0.0118
G1 X88.613 Y81.840 E0.0115
G1 X88.963 Y79.851 E0.0774
G1 X88.991 Y79.554 E0.0115
G1 X88.970 Y79.245 E0.0118
G1 X88.900 Y78.944 E0.0119
G1 X88.782 Y78.656 E0.0119
G1 X88.621 Y78.390 E0.0119
G1 X88.418 Y78.152 E0.0120
G1 X88.181 Y77.948 E0.0120
G1 X87.915 Y77.782 E0.0120
G1 X87.626 Y77.659 E0.0120
G1 X87.330 Y77.583 E0.0117
G1 X79.806 Y76.256 E0.2927
G1 X79.502 Y76.226 E0.0117
G1 X79.188 Y76.243 E0.0120
G1 X78.881 Y76.308 E0.0120
G1 X78.588 Y76.419 E0.0120
G1 X78.317 Y76.573 E0.0120
G1 X78.074 Y76.768 E0.0119
G1 X77.865 Y76.998 E0.0119
G1 X77.696 Y77.257 E0.0119
G1 X77.570 Y77.540 E0.0118
G1 X77.495 Y77.829 E0.0115
G1 X77.144 Y79.818 E0.0774
G1 X77.116 Y80.116 E0.0115
G1 X77.137 Y80.424 E0.0118
G1 X77.207 Y80.726 E0.0119
G1 X77.325 Y81.013 E0.0119
G1 X77.487 Y81.279 E0.0119
G1 X77.689 Y81.517 E0.0120
G1 X77.926 Y81.721 E0.0120
G1 X78.193 Y81.887 E0.0120
G1 X78.298 Y81.932 E0.0044
G1 X78.482 Y82.010 F784
G1 X78.778 Y82.086 E-0.1964 F2800
G1 X81.541 Y82.573 E-1.8036
G1 Z0.342 F1000
; inner perimeter
G1 X79.630 Y74.936 F4800
G1 Z0.192 F1000
G1 E1.8500 F1800
G1 X80.011 Y75.033 E0.0151 F882
G1 X102.117 Y78.931 E0.8601
G1 X102.508 Y78.970 E0.0151
G1 X102.927 Y78.947 E0.0161
G1 X103.338 Y78.860 E0.0161
G1 X103.731 Y78.711 E0.0161
G1 X104.095 Y78.504 E0.0161
G1 X104.422 Y78.242 E0.0160
G1 X104.704 Y77.932 E0.0160
G1 X104.932 Y77.582 E0.0160
G1 X105.101 Y77.200 E0.0160
G1 X105.200 Y76.823 E0.0149
G1 X107.096 Y66.067 E0.4185
G1 X107.133 Y65.680 E0.0149
G1 X107.104 Y65.263 E0.0160
G1 X107.009 Y64.856 E0.0160
G1 X106.851 Y64.468 E0.0160
G1 X106.633 Y64.110 E0.0161
G1 X106.362 Y63.791 E0.0161
G1 X106.044 Y63.517 E0.0161
G1 X105.687 Y63.295 E0.0161
G1 X105.301 Y63.130 E0.0161
G1 X104.920 Y63.032 E0.0150
G1 X82.814 Y59.134 E0.8601
G1 X82.423 Y59.096 E0.0151
G1 X82.003 Y59.119 E0.0161
G1 X81.592 Y59.205 E0.0161
G1 X81.200 Y59.354 E0.0161
G1 X80.836 Y59.562 E0.0161
G1 X80.508 Y59.823 E0.0161
G1 X80.227 Y60.133 E0.0160
G1 X79.998 Y60.484 E0.0160
G1 X79.829 Y60.866 E0.0160
G1 X79.731 Y61.242 E0.0149
G1 X77.834 Y71.998 E0.4185
G1 X77.798 Y72.385 E0.0149
G1 X77.826 Y72.803 E0.0160
G1 X77.921 Y73.210 E0.0160
G1 X78.080 Y73.597 E0.0160
G1 X78.298 Y73.955 E0.0161
G1 X78.569 Y74.275 E0.0161
G1 X78.887 Y74.549 E0.0161
G1 X79.243 Y74.771 E0.0161
G1 X79.446 Y74.857 E0.0084
G1 X79.630 Y74.936 F882
G1 X80.011 Y75.033 F2800
G1 X82.687 Y75.505 F2800
; outer perimeter
G1 X79.785 Y74.480 F4800
G1 X80.112 Y74.564 E0.0129 F784
G1 X102.182 Y78.455 E0.8587
G1 X102.518 Y78.488 E0.0129
G1 X102.864 Y78.469 E0.0133
G1 X103.203 Y78.398 E0.0133
G1 X103.526 Y78.276 E0.0132
G1 X103.825 Y78.105 E0.0132
G1 X104.092 Y77.891 E0.0131
G1 X104.322 Y77.638 E0.0131
G1 X104.509 Y77.352 E0.0131
G1 X104.647 Y77.041 E0.0131
G1 X104.730 Y76.721 E0.0127
G1 X106.620 Y66.003 E0.4170
G1 X106.651 Y65.674 E0.0127
G1 X106.628 Y65.334 E0.0130
G1 X106.551 Y65.002 E0.0131
G1 X106.421 Y64.685 E0.0131
G1 X106.243 Y64.392 E0.0131
G1 X106.020 Y64.130 E0.0132
G1 X105.758 Y63.905 E0.0132
G1 X105.465 Y63.722 E0.0133
G1 X105.146 Y63.586 E0.0133
G1 X104.819 Y63.502 E0.0129
G1 X82.749 Y59.610 E0.8587
G1 X82.412 Y59.577 E0.0129
G1 X82.066 Y59.596 E0.0133
G1 X81.728 Y59.667 E0.0133
G1 X81.405 Y59.790 E0.0132
G1 X81.106 Y59.960 E0.0132
G1 X80.838 Y60.174 E0.0131
G1 X80.608 Y60.428 E0.0131
G1 X80.422 Y60.713 E0.0131
G1 X80.284 Y61.025 E0.0130
G1 X80.200 Y61.344 E0.0127
G1 X78.310 Y72.062 E0.4170
G1 X78.279 Y72.392 E0.0127
G1 X78.303 Y72.731 E0.0131
G1 X78.380 Y73.064 E0.0131
G1 X78.510 Y73.380 E0.0131
G1 X78.688 Y73.673 E0.0131
G1 X78.911 Y73.936 E0.0132
G1 X79.172 Y74.161 E0.0132
G1 X79.466 Y74.344 E0.0133
G1 X79.601 Y74.401 E0.0056
G1 X79.785 Y74.480 F784
G1 X80.112 Y74.564 E-0.2172 F2800
G1 X82.843 Y75.045 E-1.7828
G1 Z0.342 F1000
; inner perimeter
G1 X92.617 Y84.897 F4800
G1 Z0.192 F1000
G1 E1.8500 F1800
G1 X92.974 Y85.049 E0.0149 F882
G1 X93.324 Y85.138 E0.0138
G1 X100.884 Y86.471 E0.2941
G1 X101.243 Y86.507 E0.0138
G1 X101.630 Y86.486 E0.0149
G1 X102.009 Y86.406 E0.0149
G1 X102.372 Y86.268 E0.0148
G1 X102.709 Y86.077 E0.0149
G1 X103.011 Y85.835 E0.0148
G1 X103.271 Y85.549 E0.0148
G1 X103.482 Y85.225 E0.0148
G1 X103.639 Y84.871 E0.0148
G1 X103.729 Y84.525 E0.0137
G1 X104.087 Y82.498 E0.0789
G1 X104.120 Y82.142 E0.0137
G1 X104.094 Y81.757 E0.0148
G1 X104.006 Y81.380 E0.0148
G1 X103.859 Y81.022 E0.0148
G1 X103.658 Y80.691 E0.0148
G1 X103.407 Y80.396 E0.0148
G1 X103.114 Y80.143 E0.0148
G1 X102.784 Y79.938 E0.0149
G1 X102.428 Y79.786 E0.0149
G1 X102.078 Y79.696 E0.0138
G1 X94.518 Y78.363 E0.2941
G1 X94.159 Y78.328 E0.0138
G1 X93.772 Y78.349 E0.0149
G1 X93.392 Y78.429 E0.0149
G1 X93.030 Y78.566 E0.0149
G1 X92.693 Y78.758 E0.0148
G1 X92.391 Y79.000 E0.0148
G1 X92.131 Y79.286 E0.0148
G1 X91.920 Y79.610 E0.0148
G1 X91.763 Y79.964 E0.0148
G1 X91.673 Y80.309 E0.0137
G1 X91.315 Y82.336 E0.0789
G1 X91.282 Y82.692 E0.0137
G1 X91.308 Y83.078 E0.0148
G1 X91.396 Y83.455 E0.0148
G1 X91.543 Y83.813 E0.0148
G1 X91.744 Y84.143 E0.0148
G1 X91.995 Y84.439 E0.0149
G1 X92.288 Y84.692 E0.0148
G1 X92.448 Y84.791 E0.0072
G1 X92.617 Y84.897 F882
G1 X92.974 Y85.049 F2800
G1 X93.324 Y85.138 F2800
G1 X95.650 Y85.549 F2800
; outer perimeter
G1 X92.840 Y84.470 F4800
G1 X93.129 Y84.593 E0.0120 F784
G1 X93.425 Y84.669 E0.0117
G1 X100.949 Y85.996 E0.2927
G1 X101.253 Y86.026 E0.0117
G1 X101.567 Y86.008 E0.0120
G1 X101.874 Y85.944 E0.0120
G1 X102.167 Y85.833 E0.0120
G1 X102.438 Y85.678 E0.0120
G1 X102.681 Y85.484 E0.0119
G1 X102.890 Y85.254 E0.0119
G1 X103.059 Y84.995 E0.0119
