; G-Code generated by Simplify3D(R) Version 3.0.0
; 6 28, 2016 at 11:33:42 DOP.
; Settings Summary
;   processName,Process1
;   applyToModels,buttons,cover-down-3,cover-up-3
;   profileName,Original Prusa i3 PLA 1.75mm (modified)
;   profileVersion,2016-06-03 16:26:06
;   baseProfile,Prusa Mendel (modified)
;   printMaterial,PLA
;   printQuality,NORMAL
;   printExtruders,
;   extruderName,Primary Extruder
;   extruderToolheadNumber,0
;   extruderDiameter,0.4
;   extruderAutoWidth,1
;   extruderWidth,0.48
;   extrusionMultiplier,1
;   extruderUseRetract,1
;   extruderRetractionDistance,2
;   extruderExtraRestartDistance,-0.15
;   extruderRetractionZLift,0.15
;   extruderRetractionSpeed,1800
;   extruderUseCoasting,1
;   extruderCoastingDistance,0.2
;   extruderUseWipe,1
;   extruderWipeDistance,0.2
;   primaryExtruder,0
;   layerHeight,0.16
;   topSolidLayers,8
;   bottomSolidLayers,5
;   perimeterOutlines,2
;   printPerimetersInsideOut,1
;   startPointOption,3
;   startPointOriginX,0
;   startPointOriginY,0
;   startPointOriginZ,300
;   sequentialIslands,0
;   spiralVaseMode,0
;   firstLayerHeightPercentage,120
;   firstLayerWidthPercentage,100
;   firstLayerUnderspeed,0.35
;   useRaft,0
;   raftExtruder,0
;   raftLayers,3
;   raftOffset,3
;   raftSeparationDistance,0.14
;   raftInfill,85
;   disableRaftBaseLayers,0
;   useSkirt,0
;   skirtExtruder,0
;   skirtLayers,1
;   skirtOutlines,7
;   skirtOffset,0
;   usePrimePillar,0
;   primePillarExtruder,999
;   primePillarWidth,12
;   primePillarLocation,7
;   primePillarSpeedMultiplier,1
;   useOozeShield,0
;   oozeShieldExtruder,999
;   oozeShieldOffset,2
;   oozeShieldOutlines,1
;   oozeShieldSidewallShape,1
;   oozeShieldSidewallAngle,30
;   oozeShieldSpeedMultiplier,1
;   infillExtruder,0
;   internalInfillPattern,Triangular
;   externalInfillPattern,Rectilinear
;   infillPercentage,22
;   outlineOverlapPercentage,25
;   infillExtrusionWidthPercentage,100
;   minInfillLength,2
;   infillLayerInterval,1
;   infillAngles,0,60,-60
;   overlapInfillAngles,1
;   generateSupport,0
;   supportExtruder,0
;   supportInfillPercentage,30
;   supportExtraInflation,0.4
;   denseSupportLayers,0
;   denseSupportInfillPercentage,70
;   supportLayerInterval,1
;   supportHorizontalPartOffset,0.2
;   supportUpperSeparationLayers,1
;   supportLowerSeparationLayers,1
;   supportType,0
;   supportGridSpacing,3.5
;   maxOverhangAngle,60
;   supportAngles,0
;   temperatureName,Primary Extruder,Heated Bed
;   temperatureNumber,0,1
;   temperatureSetpointCount,1,1
;   temperatureSetpointLayers,1,1
;   temperatureSetpointTemperatures,205,50
;   temperatureStabilizeAtStartup,1,1
;   temperatureHeatedBed,0,1
;   temperatureRelayBetweenLayers,0,0
;   temperatureRelayBetweenLoops,0,0
;   fanLayers,1,2
;   fanSpeeds,0,100
;   blipFanToFullPower,1
;   adjustSpeedForCooling,1
;   minSpeedLayerTime,15
;   minCoolingSpeedSlowdown,20
;   increaseFanForCooling,0
;   minFanLayerTime,45
;   maxCoolingFanSpeed,100
;   increaseFanForBridging,1
;   bridgingFanSpeed,100
;   use5D,1
;   relativeEdistances,1
;   allowEaxisZeroing,1
;   independentExtruderAxes,0
;   includeM10123,0
;   stickySupport,1
;   applyToolheadOffsets,0
;   gcodeXoffset,0
;   gcodeYoffset,0
;   gcodeZoffset,0
;   overrideMachineDefinition,1
;   machineTypeOverride,0
;   strokeXoverride,200
;   strokeYoverride,200
;   strokeZoverride,175
;   originOffsetXoverride,0
;   originOffsetYoverride,0
;   originOffsetZoverride,0
;   homeXdirOverride,-1
;   homeYdirOverride,-1
;   homeZdirOverride,-1
;   flipXoverride,1
;   flipYoverride,-1
;   flipZoverride,1
;   toolheadOffsets,0,0|0,0|0,0|0,0|0,0|0,0
;   overrideFirmwareConfiguration,0
;   firmwareTypeOverride,RepRap (Marlin/Repetier/Sprinter)
;   GPXconfigOverride,r2
;   baudRateOverride,250000
;   overridePrinterModels,1
;   printerModelsOverride
;   startingGcode,M201 X1000 Y1000 E600,M92 E161.3,G28,G92 E0.0,G1 X8.0 F2000,G1 Y60.0 E4.0  F1000.0,G1 Y100.0 E8.5  F1000.0,G92 Z0.1,G92 E0.0
;   layerChangeGcode,
;   retractionGcode,
;   toolChangeGcode,
;   endingGcode,M104 S0 ; turn off temperature,M140 S0 ; turn off heatbed,G28 X0  ; home X axis,M84     ; disable motors
;   createX3G,0
;   celebration,0
;   celebrationSong,Looney Toons
;   createMB5G,0
;   postProcessing,
;   defaultSpeed,3000
;   outlineUnderspeed,0.8
;   solidInfillUnderspeed,0.9
;   supportUnderspeed,0.8
;   rapidXYspeed,4800
;   rapidZspeed,1000
;   minBridgingArea,50
;   bridgingExtraInflation,1
;   bridgingExtrusionMultiplier,1
;   bridgingSpeedMultiplier,1
;   filamentDiameter,1.75
;   filamentPricePerKg,215
;   filamentDensity,1.25
;   useMinPrintHeight,0
;   minPrintHeight,0
;   useMaxPrintHeight,0
;   maxPrintHeight,0
;   useDiaphragm,0
;   diaphragmLayerInterval,20
;   robustSlicing,1
;   mergeAllIntoSolid,0
;   onlyRetractWhenCrossingOutline,1
;   retractBetweenLayers,1
;   useRetractionMinTravel,1
;   retractionMinTravel,3
;   retractWhileWiping,1
;   onlyWipeOutlines,0
;   avoidCrossingOutline,0
;   maxMovementDetourFactor,3
;   toolChangeRetractionDistance,12
;   toolChangeExtraRestartDistance,-0.5
;   toolChangeRetractionSpeed,600
;   allowThinWallGapFill,1
;   thinWallAllowedOverlapPercentage,10
;   horizontalSizeCompensation,0
G90
M83
M106 S0
M140 S50 T0
M190 S50
M104 S205 T0
M109 S205 T0
M201 X1000 Y1000 E600
M92 E161.3
G28
G92 E0.0
G1 X8.0 F2000
G1 Y60.0 E4.0  F1000.0
G1 Y100.0 E8.5  F1000.0
G92 Z0.1
G92 E0.0
G1 E-2.0000 F1800
G1 Z0.342 F1000
; layer 1, Z = 0.192
M135 T0
; tool H0.192 W0.480
; inner perimeter
G1 X74.409 Y119.752 F4800
G1 Z0.192 F1000
G1 E1.8500 F540
G1 X73.897 Y119.446 E0.0229 F945
G1 X73.438 Y119.070 E0.0227
G1 X73.041 Y118.633 E0.0226
G1 X72.716 Y118.146 E0.0225
G1 X72.457 Y117.593 E0.0234
G1 X70.220 Y111.686 E0.2420
G1 X69.534 Y109.598 E0.0842
G1 X69.040 Y107.477 E0.0834
G1 X68.738 Y105.325 E0.0833
G1 X68.630 Y103.157 E0.0832
G1 X68.716 Y100.991 E0.0831
G1 X68.998 Y98.826 E0.0836
G1 X74.552 Y67.327 E1.2255
G1 X74.734 Y66.655 E0.0267
G1 X75.018 Y66.053 E0.0255
G1 X75.406 Y65.509 E0.0256
G1 X75.887 Y65.036 E0.0258
G1 X76.447 Y64.652 E0.0260
G1 X77.069 Y64.367 E0.0262
G1 X77.735 Y64.190 E0.0264
G1 X78.444 Y64.126 E0.0273
G1 X82.121 Y64.217 E0.1409
G1 X85.808 Y64.529 E0.1418
G1 X89.469 Y65.062 E0.1418
G1 X93.093 Y65.814 E0.1418
G1 X96.664 Y66.781 E0.1418
G1 X100.150 Y67.954 E0.1409
G1 X100.795 Y68.256 E0.0273
G1 X101.360 Y68.650 E0.0264
G1 X101.847 Y69.131 E0.0262
G1 X102.242 Y69.683 E0.0260
G1 X102.532 Y70.291 E0.0258
G1 X102.710 Y70.936 E0.0256
G1 X102.772 Y71.599 E0.0255
G1 X102.713 Y72.293 E0.0267
G1 X97.158 Y103.792 E1.2255
G1 X96.683 Y105.922 E0.0837
G1 X96.023 Y107.988 E0.0831
G1 X95.180 Y109.987 E0.0831
G1 X94.160 Y111.906 E0.0833
G1 X92.971 Y113.730 E0.0834
G1 X91.612 Y115.458 E0.0842
G1 X87.489 Y120.244 E0.2420
G1 X87.057 Y120.674 E0.0234
G1 X86.585 Y121.021 E0.0225
G1 X86.063 Y121.296 E0.0226
G1 X85.503 Y121.492 E0.0227
G1 X84.916 Y121.604 E0.0229
G1 X84.318 Y121.630 E0.0229
G1 X83.695 Y121.567 E0.0240
G1 X75.570 Y120.134 E0.3161
G1 X74.963 Y119.981 E0.0240
G1 X74.594 Y119.828 E0.0153
G1 X74.409 Y119.752 F945
G1 X73.897 Y119.446 F3000
G1 X73.438 Y119.070 F3000
G1 X73.041 Y118.633 F3000
G1 X72.716 Y118.146 F3000
G1 X72.457 Y117.593 F3000
G1 X72.331 Y117.259 F3000
; outer perimeter
G1 X74.193 Y120.182 F4800
G1 X73.621 Y119.840 E0.0256 F840
G1 X73.106 Y119.419 E0.0255
G1 X72.661 Y118.929 E0.0253
G1 X72.296 Y118.382 E0.0252
G1 X72.015 Y117.780 E0.0254
G1 X69.768 Y111.846 E0.2431
G1 X69.071 Y109.727 E0.0854
G1 X68.568 Y107.565 E0.0851
G1 X68.260 Y105.370 E0.0849
G1 X68.149 Y103.160 E0.0848
G1 X68.237 Y100.950 E0.0847
G1 X68.523 Y98.753 E0.0849
G1 X74.083 Y67.223 E1.2268
G1 X74.281 Y66.489 E0.0291
G1 X74.602 Y65.810 E0.0288
G1 X75.040 Y65.196 E0.0289
G1 X75.581 Y64.665 E0.0290
G1 X76.209 Y64.233 E0.0292
G1 X76.906 Y63.913 E0.0294
G1 X77.651 Y63.716 E0.0295
G1 X78.428 Y63.646 E0.0299
G1 X82.147 Y63.737 E0.1426
G1 X85.862 Y64.052 E0.1429
G1 X89.553 Y64.589 E0.1429
G1 X93.205 Y65.347 E0.1429
G1 X96.803 Y66.321 E0.1429
G1 X100.329 Y67.508 E0.1425
G1 X101.036 Y67.839 E0.0299
G1 X101.668 Y68.280 E0.0295
G1 X102.214 Y68.818 E0.0294
G1 X102.657 Y69.439 E0.0292
G1 X102.983 Y70.123 E0.0290
G1 X103.184 Y70.850 E0.0289
G1 X103.254 Y71.597 E0.0288
G1 X103.189 Y72.355 E0.0291
G1 X97.629 Y103.886 E1.2268
G1 X97.147 Y106.048 E0.0849
G1 X96.474 Y108.154 E0.0847
G1 X95.614 Y110.194 E0.0848
G1 X94.574 Y112.151 E0.0849
G1 X93.361 Y114.010 E0.0851
G1 X91.982 Y115.763 E0.0854
G1 X87.841 Y120.571 E0.2432
G1 X87.371 Y121.040 E0.0254
G1 X86.840 Y121.429 E0.0252
G1 X86.255 Y121.737 E0.0253
G1 X85.628 Y121.957 E0.0255
G1 X84.972 Y122.082 E0.0256
G1 X84.304 Y122.112 E0.0256
G1 X83.629 Y122.042 E0.0260
G1 X75.470 Y120.604 E0.3175
G1 X74.811 Y120.438 E0.0260
G1 X74.378 Y120.258 E0.0180
G1 X74.193 Y120.182 F840
G1 X73.621 Y119.840 F3000
G1 X73.106 Y119.419 F3000
G1 X72.661 Y118.929 F3000
G1 X72.296 Y118.382 F3000
G1 X72.015 Y117.780 F3000
G1 X72.008 Y117.763 F3000
; inner perimeter
G1 X71.880 Y98.081 F4800
G1 X72.229 Y98.170 E0.0138 F945
G1 X79.789 Y99.503 E0.2941
G1 X80.148 Y99.539 E0.0138
G1 X80.536 Y99.518 E0.0149
G1 X80.915 Y99.438 E0.0149
G1 X81.277 Y99.300 E0.0148
G1 X81.614 Y99.108 E0.0149
G1 X81.917 Y98.867 E0.0148
G1 X82.177 Y98.580 E0.0148
G1 X82.388 Y98.256 E0.0148
G1 X82.545 Y97.903 E0.0148
G1 X82.635 Y97.557 E0.0137
G1 X82.992 Y95.530 E0.0789
G1 X83.026 Y95.174 E0.0137
G1 X82.999 Y94.788 E0.0148
G1 X82.912 Y94.412 E0.0148
G1 X82.765 Y94.054 E0.0148
G1 X82.564 Y93.723 E0.0148
G1 X82.313 Y93.428 E0.0148
G1 X82.020 Y93.175 E0.0148
G1 X81.690 Y92.970 E0.0149
G1 X81.333 Y92.817 E0.0149
G1 X80.984 Y92.728 E0.0138
G1 X73.424 Y91.395 E0.2941
G1 X73.065 Y91.359 E0.0138
G1 X72.678 Y91.380 E0.0149
G1 X72.298 Y91.461 E0.0149
G1 X71.936 Y91.598 E0.0149
G1 X71.599 Y91.790 E0.0148
G1 X71.297 Y92.031 E0.0148
G1 X71.037 Y92.318 E0.0148
G1 X70.825 Y92.642 E0.0148
G1 X70.669 Y92.995 E0.0148
G1 X70.579 Y93.341 E0.0137
G1 X70.221 Y95.368 E0.0789
G1 X70.188 Y95.724 E0.0137
G1 X70.214 Y96.110 E0.0148
G1 X70.302 Y96.486 E0.0148
G1 X70.448 Y96.844 E0.0148
G1 X70.650 Y97.175 E0.0148
G1 X70.900 Y97.470 E0.0148
G1 X71.194 Y97.723 E0.0149
G1 X71.523 Y97.928 E0.0149
G1 X71.696 Y98.002 E0.0072
G1 X71.880 Y98.081 F945
G1 X72.229 Y98.170 F3000
G1 X75.157 Y98.686 F3000
; outer perimeter
G1 X72.035 Y97.625 F4800
G1 X72.331 Y97.701 E0.0117 F840
G1 X79.855 Y99.027 E0.2927
G1 X80.159 Y99.057 E0.0117
G1 X80.473 Y99.040 E0.0120
G1 X80.780 Y98.975 E0.0120
G1 X81.072 Y98.865 E0.0120
G1 X81.344 Y98.710 E0.0120
G1 X81.587 Y98.516 E0.0119
G1 X81.796 Y98.286 E0.0119
G1 X81.965 Y98.027 E0.0119
G1 X82.090 Y97.744 E0.0118
G1 X82.166 Y97.454 E0.0115
G1 X82.516 Y95.466 E0.0774
G1 X82.544 Y95.168 E0.0115
G1 X82.523 Y94.860 E0.0118
G1 X82.453 Y94.558 E0.0119
G1 X82.335 Y94.271 E0.0119
G1 X82.174 Y94.005 E0.0119
G1 X81.971 Y93.767 E0.0120
G1 X81.734 Y93.562 E0.0120
G1 X81.468 Y93.397 E0.0120
G1 X81.179 Y93.273 E0.0120
G1 X80.883 Y93.197 E0.0117
G1 X73.359 Y91.871 E0.2927
G1 X73.055 Y91.841 E0.0117
G1 X72.741 Y91.858 E0.0120
G1 X72.434 Y91.923 E0.0120
G1 X72.141 Y92.033 E0.0120
G1 X71.870 Y92.188 E0.0120
G1 X71.627 Y92.382 E0.0119
G1 X71.418 Y92.612 E0.0119
G1 X71.249 Y92.872 E0.0119
G1 X71.123 Y93.154 E0.0118
G1 X71.048 Y93.444 E0.0115
G1 X70.697 Y95.432 E0.0774
G1 X70.669 Y95.730 E0.0115
G1 X70.690 Y96.039 E0.0118
G1 X70.760 Y96.340 E0.0119
G1 X70.878 Y96.627 E0.0119
G1 X71.040 Y96.893 E0.0119
G1 X71.242 Y97.131 E0.0120
G1 X71.479 Y97.336 E0.0120
G1 X71.746 Y97.501 E0.0120
G1 X71.851 Y97.546 E0.0044
G1 X72.035 Y97.625 F840
G1 X72.331 Y97.701 E-0.1833 F3000
G1 X75.312 Y98.226 E-1.8167
G1 Z0.342 F1000
; inner perimeter
G1 X73.183 Y90.550 F4800
G1 Z0.192 F1000
G1 E1.8500 F1800
G1 X73.564 Y90.648 E0.0151 F945
G1 X95.670 Y94.546 E0.8601
G1 X96.061 Y94.584 E0.0151
G1 X96.480 Y94.561 E0.0161
G1 X96.891 Y94.475 E0.0161
G1 X97.284 Y94.326 E0.0161
G1 X97.648 Y94.118 E0.0161
G1 X97.975 Y93.857 E0.0160
G1 X98.257 Y93.547 E0.0160
G1 X98.485 Y93.197 E0.0160
G1 X98.654 Y92.814 E0.0160
G1 X98.753 Y92.438 E0.0149
G1 X100.649 Y81.682 E0.4185
G1 X100.686 Y81.295 E0.0149
G1 X100.657 Y80.877 E0.0160
G1 X100.562 Y80.470 E0.0160
G1 X100.404 Y80.083 E0.0160
G1 X100.186 Y79.725 E0.0160
G1 X99.915 Y79.405 E0.0161
G1 X99.597 Y79.131 E0.0161
G1 X99.240 Y78.909 E0.0161
G1 X98.854 Y78.744 E0.0161
G1 X98.473 Y78.647 E0.0150
G1 X76.367 Y74.749 E0.8601
G1 X75.976 Y74.710 E0.0151
G1 X75.556 Y74.733 E0.0161
G1 X75.145 Y74.820 E0.0161
G1 X74.753 Y74.969 E0.0161
G1 X74.389 Y75.176 E0.0161
G1 X74.061 Y75.438 E0.0161
G1 X73.780 Y75.748 E0.0160
G1 X73.551 Y76.098 E0.0160
G1 X73.382 Y76.480 E0.0160
G1 X73.284 Y76.856 E0.0149
G1 X71.387 Y87.613 E0.4185
G1 X71.351 Y88.000 E0.0149
G1 X71.379 Y88.417 E0.0160
G1 X71.474 Y88.824 E0.0160
G1 X71.633 Y89.212 E0.0160
G1 X71.851 Y89.569 E0.0160
G1 X72.122 Y89.889 E0.0161
G1 X72.440 Y90.163 E0.0161
G1 X72.796 Y90.385 E0.0161
G1 X72.999 Y90.472 E0.0084
G1 X73.183 Y90.550 F945
G1 X73.564 Y90.648 F3000
G1 X76.459 Y91.158 F3000
; outer perimeter
G1 X73.338 Y90.094 F4800
G1 X73.665 Y90.178 E0.0129 F840
G1 X95.735 Y94.070 E0.8587
G1 X96.071 Y94.103 E0.0129
G1 X96.417 Y94.084 E0.0133
G1 X96.756 Y94.013 E0.0133
G1 X97.079 Y93.890 E0.0132
G1 X97.378 Y93.720 E0.0132
G1 X97.645 Y93.506 E0.0131
G1 X97.875 Y93.252 E0.0131
G1 X98.062 Y92.967 E0.0131
G1 X98.200 Y92.655 E0.0131
G1 X98.283 Y92.336 E0.0127
G1 X100.173 Y81.617 E0.4170
G1 X100.204 Y81.288 E0.0127
G1 X100.181 Y80.949 E0.0130
G1 X100.104 Y80.616 E0.0131
G1 X99.974 Y80.300 E0.0131
G1 X99.796 Y80.007 E0.0131
G1 X99.573 Y79.744 E0.0132
G1 X99.311 Y79.519 E0.0132
G1 X99.018 Y79.336 E0.0133
G1 X98.699 Y79.200 E0.0133
G1 X98.372 Y79.116 E0.0129
G1 X76.302 Y75.225 E0.8587
G1 X75.965 Y75.192 E0.0129
G1 X75.619 Y75.211 E0.0133
G1 X75.281 Y75.282 E0.0133
G1 X74.958 Y75.404 E0.0132
G1 X74.659 Y75.575 E0.0132
G1 X74.391 Y75.789 E0.0131
G1 X74.161 Y76.042 E0.0131
G1 X73.975 Y76.328 E0.0131
G1 X73.837 Y76.639 E0.0131
G1 X73.753 Y76.959 E0.0127
G1 X71.863 Y87.677 E0.4170
G1 X71.832 Y88.006 E0.0127
G1 X71.856 Y88.346 E0.0131
G1 X71.933 Y88.678 E0.0131
G1 X72.063 Y88.995 E0.0131
G1 X72.241 Y89.288 E0.0131
G1 X72.464 Y89.550 E0.0132
G1 X72.725 Y89.775 E0.0132
G1 X73.019 Y89.958 E0.0133
G1 X73.154 Y90.016 E0.0056
G1 X73.338 Y90.094 F840
G1 X73.665 Y90.178 E-0.2027 F3000
G1 X76.615 Y90.698 E-1.7973
G1 Z0.342 F1000
; inner perimeter
G1 X86.170 Y100.511 F4800
G1 Z0.192 F1000
G1 E1.8500 F1800
G1 X86.527 Y100.664 E0.0149 F945
G1 X86.877 Y100.753 E0.0138
G1 X94.437 Y102.086 E0.2941
G1 X94.796 Y102.121 E0.0138
G1 X95.183 Y102.100 E0.0149
G1 X95.562 Y102.020 E0.0149
G1 X95.925 Y101.883 E0.0148
G1 X96.262 Y101.691 E0.0149
G1 X96.564 Y101.449 E0.0148
G1 X96.824 Y101.163 E0.0148
G1 X97.035 Y100.839 E0.0148
G1 X97.192 Y100.485 E0.0148
G1 X97.282 Y100.140 E0.0137
G1 X97.639 Y98.113 E0.0789
G1 X97.673 Y97.757 E0.0137
G1 X97.647 Y97.371 E0.0148
G1 X97.559 Y96.994 E0.0148
G1 X97.412 Y96.636 E0.0148
G1 X97.211 Y96.306 E0.0148
G1 X96.960 Y96.010 E0.0148
G1 X96.667 Y95.757 E0.0148
G1 X96.337 Y95.552 E0.0149
G1 X95.981 Y95.400 E0.0149
G1 X95.631 Y95.311 E0.0138
G1 X88.071 Y93.977 E0.2941
G1 X87.712 Y93.942 E0.0138
G1 X87.325 Y93.963 E0.0149
G1 X86.946 Y94.043 E0.0149
G1 X86.583 Y94.181 E0.0149
G1 X86.246 Y94.372 E0.0148
G1 X85.944 Y94.614 E0.0148
G1 X85.684 Y94.901 E0.0148
G1 X85.473 Y95.224 E0.0148
G1 X85.316 Y95.578 E0.0148
G1 X85.226 Y95.924 E0.0137
G1 X84.868 Y97.951 E0.0789
G1 X84.835 Y98.307 E0.0137
G1 X84.861 Y98.692 E0.0148
G1 X84.949 Y99.069 E0.0148
G1 X85.095 Y99.427 E0.0148
G1 X85.297 Y99.758 E0.0148
G1 X85.548 Y100.053 E0.0149
G1 X85.841 Y100.306 E0.0148
G1 X86.001 Y100.405 E0.0072
G1 X86.170 Y100.511 F945
G1 X86.527 Y100.664 F3000
G1 X86.877 Y100.753 F3000
G1 X89.422 Y101.202 F3000
; outer perimeter
G1 X86.393 Y100.084 F4800
G1 X86.682 Y100.208 E0.0120 F840
G1 X86.978 Y100.283 E0.0117
G1 X94.502 Y101.610 E0.2927
G1 X94.806 Y101.640 E0.0117
G1 X95.120 Y101.623 E0.0120
G1 X95.427 Y101.558 E0.0120
G1 X95.720 Y101.447 E0.0120
G1 X95.991 Y101.293 E0.0120
G1 X96.234 Y101.098 E0.0119
G1 X96.443 Y100.869 E0.0119
